X:839
T:Sidh-Chaillionn
R:Strathspey
B:The Athole Collection
M:C|
L:1/8
K:A Minor
G|E<A A>B c>A B2|B<G G<c B/c/d/B/ G>B|c>AB>G A/A/A c2|
g>e e/d/c/B/ c>A A:|
B|c/c/c ~c>d c/d/e/^f/ g2|GGd>c B/c/d/B/ G>B|1 c/c/c ~c>e c/d/e/^f/ g>a|
g>e e/d/c/B/ c<AA:|2 c>AB>G A/A/A c2|g>e e/d/c/B/ cAA||

